!!!OTL: SECHS BUCKEL HEUT HAWE TANZT
!!!ARE: Europa, Mitteleuropa, Deutschland; France, Elsass
!!!SCT: E1021
!!!YEM: Copyright 1995, estate of Helmut Schaffrath.
**kern
*ICvox
*Ivox
*M3/8
*k[b-]
*F:
{16cc
16cc
=1
16dd
16dd
16cc
16cc
16b-
16b-
=2
8a}
{16a
16a
16a
16a
=3
16g
16g
16g
16g
16g
16g
=4
4f}
{16cc
16cc
=5
16dd
16dd
16cc
16cc
16b-
16b-
=6
8a}
{16a
16a
16a
16a
=7
16g
16g
16g
16g
16g
16g
=8
4.f}
=9
{4a
16cc
16b-
=10
8a
16cc
16b-
8a}
=11
{4g
16b-
16a
=12
8g
16b-
16a
8g}
=13
{4a
16cc
16b-
=14
8a
16cc
16b-
8a}
=15
{8g
8g
16a
16g
=16
8g
8r}
==
!!!AGN: Tanz - Lied
!!!ONB: ESAC (Essen Associative Code) Database: ERK3
!!!AMT: simple triple
!!!AIN: vox
!!!EED: Helmut Schaffrath
!!!EEV: 1.0
*-
